X: 1
T: Mr. & Mrs. McLaughlin of San Diego
C: Muriel Johnstone
R: reel
B: The Whiteaddr Collection, 1993
D: Dancing Fingers Vol.III
N:
N: Muriel Johnstone and Bill Zobel   Tel. 0890 818884
N: Scotscores, Muse Cottage, Allanton, Duns, Beerwiskshire, TD11 3JZ, Scotland
Z: 1997 by John Chambers <jc:trillian.mit.edu>
M: C|
L: 1/8
K: G
|: zE \
| "G"DGBG "D7"c2Bc | "G"dGBd "C"e2de | "G"g3e "Em"dGBd | "Am"cABG "D7"AGEG |
| "G"DGBG "D7"c2Bc | "G"dGBd "C"e2de | "Em"g2"C"ed "D7"BDBA | "G"G2B2 G2 :|
| Bc \
|| "G"dggd "C"e2dc | "G"BDGB "C"AGEG | "G"DEGA "Em"B2AG | "Am"AGBG "D7"ABce |
|  "G"dg2d "C"e2dc | "G"BDGB "C"AGEG | "G"D2"C"ed "D7"BDBA | "G"G2B2 GABc ||
|| "G"dg2d "C"e2dc | "G"BDGB "C"AGEG | "G"DEGA "Em"B2AG | "Am"AGBG "D7"AGEG |
| "G"DGBG "D7"c2Bc | "G"dGBd "C"e2de | "Em"g2"C"ed "D7"BDBA | "G"G2B2 G2 |]
